X: 20762
T: The merry Beggars
%R: slip-jig
B: James Oswald "The Caledonian Pocket Companion" v.2 p.76 #2
Z: 2019 John Chambers <jc:trillian.mit.edu>
M: 9/8
L: 1/16
K: Gm
"_Brisk"D2 |\
G2A2G2 B2A2G2 ^F2A2F2 | G2A2G2 A2=F2A2 c4A2 |\
G2A2G2 B2A2G2 F2G2A2 | f2=e2d2 c2A2F2 G4 ::\
d2 |\
g4a2 b2a2g2 f2d2=e2 |
f4g2 a2g2a2 f4d2 |\
g4a2 b2a2g2 f2d2f2 | c2A2F2 c2A2F2 G6 :: D2 |\
(GAB2G2) A2(cBAG) ^F2A2F2 | (GAB2G2) A2=F2A2 c4A2 |
B2c2d2 g2b2a2 g2f2_e2 | d2c2B2 A2d2^F2 G4 :: d2 |\
g2(bag^f) g2(bag^f) g2d2=e2 |\
=f2agf=e f2c2B2 A2F2d2 | g2(bag^f) g2(bag^f) g2d2_e2 |
d2c2B2 A2d2^F2 G4 :: d2 |\
B2G2d2 (g^fga)g2 B2G2c2 | A2F2c2 (f=efg)f2 A2F2A2 |\
B2G2d2 (g^fga)b2 (agab)c'2 |
b2a2g2 d2g2^f2 g6 :: d2 |\
g4a2 b2a2g2 ^f2d2d2 | =e2=f2g2 f2c2B2 A2F2d2 |\
g4a2 b2a2g2 ^f2d2g2 | =f2=e2d2 c2A2F2 G4 :|


